!!!OTL: Caroline and Her Young Sailor Bold
!!!ONM: 33.
**kern
*clefG2
*k[b-]
*F:
*M3/4
*>[A,B,B1,B,B2]
*>norep[A,B,B2]
*>A
*MM144
{4c
*>B
=1!|:
4f
4a
4f
=2
4g
4a
4b-
=3
4dd
[2cc
=4
4cc]
4r}
{4c
=5
4f
4a
4cc
=6
4g
4b-
4a
=7
[2.f
*>B1
=8
!! ending 1
4f]
4r}
{4c
*>B2
=9:|!
!! ending 1
4f]
4r}
{(8a
8b-)
=10
4cc
4a
4cc
=11
(4ff
4ee)
4ff
=12
4dd
[2g
=13
4g]
4r}
{8g
8a
=14
4b-
4cc
4dd
=15
4cc
4b-
4g
=16
[2.f
=17
4f]
4r}
{4c
=18
4f
4a
4f
=19
4g
4a
4b-
=20
4dd
[2cc
=21
4cc]
4r}
{8c
8c
=22
4f
4a
4cc
=23
4g
4b-
4a
=24
[2.f
=25
4f]
4r}
==
*-
!!!CNT: Folksongs of Maritime Canada
!!!MRD: 1928///-1932///
!!!OCL: Helen Creighton
!!!YOR: Songs and Ballads from Nova Scotia
!!!PPR: J.M. Dent & Sons, Limited
!!!PPP: Toronto, Canada
!!!PDT: 1932///
!!!reprint: Dover Publications, 1992: ISBN 0-486-21703-5
!!!ENC1: Craig Stuart Sapp (music and bibliographic data)                       
!!!ENC2: Marcus Pearce (phrase markings and key designations)                   
!!!ENC3: Darrell Conklin (phrase markings and key designations)   
!!!END: 2002/04/10/
!!!EEV: 2004/06/05
!!!MPN: Mrs. Thomas Osborne
!!!PPG: 66
!!!EFL: 33/152
!!!ARE: Canada; Nova Scotia
!!!verses: 7
!! ending 1
!! ending 1
!!!VTS: 2501424198
